X:206
T:Polska fr{\aa}n H\"ogsj\"o
R:sl\"angpolska
H:efter C. A. Hertsmann, H\"ogsj\"o. Jfr #40
A:S\"ormland
B:A.P. Andersson 1880
Z:id:hn-sp-206
M:3/4
L:1/16
K:F
f4 cdcB ABAG | F2f2 eceg f4 | b3a a2g2 g2f2 | efed cdcB A2c2 |
f4 cdcB ABAG | F2f2 eceg f4 | b3a a2g2 g2f2 | eceg g4 f4 :|
|: f3a a2c'2 c'2c'2 | a2c'2 d'c'ba b4 | e3g g2b2 b2b2 |
g2b2 c'bag a4 :| FAcA fAcA FAcA | Bdfd bdfd Bdfd | cege bege cege | 
fefa gfed cBAG | FAcA fAcA FAcA | Bdfd bdfd Bdfd | cege bege cege | 
fefa g4 f4 ||
<end>
<start>
